X:1
T:Title
%%score { ( 1 3 4 ) | ( 2 5 ) }
L:1/8
M:4/4
K:Eb
V:1 treble nm="Grand Piano"
V:3 treble 
V:4 treble 
V:2 bass 
V:5 bass 
V:1
 z4 z2[Q:1/4=121] G2 | B2 c2 B2 G2 | [A,DF]2 [G,E]4 [B,DF]2 | [B,EG]4 [DAB]4 | [GB]6 [GB]2 | %5
 [Ge]2 [Gd]2 [Ae]2 [Ac]2 | [GB]2 E2 D2 E2 | A4 G4 | [DF]6 G2 | B2 c2 B2 G2 | %10
 [A,DF]2 [G,E]4 [B,DF]2 | [B,EG]4 [DAB]4 | [GB]6 [GB]2 | =A2 G2 A2 G2 | F2 G2 =A2 B2 | d4 c4 | %16
[M:3/4] [DB]6 |[M:1/4] [EG][FA] |[M:4/4] [GB]2 [GB]4 [Ac]2 | [GB]6 [EG][FA] | [GB]2 [GB]4 [Ge]2 | %21
 [Ad]6 [DF][EG] | [FA]2 [FA]4 [GB]2 | [Bd]2 [Bd]4 [Ac]2 | [GB]4 z4 | [B,EG]6 [B,EG][B,FA] | %26
 [B,GB]2 [GB]4 [Ac]2 | [GB]6 [EG][FA] | [GB]2 [Ge]4 [Bd]2 | c6 cc | e2 e2 d2 c2 | %31
[M:5/4] [GB]2 [Ge]6 [_Gc]2 | [GB]4 [Ad]6 |[M:3/4] [Ge]6 |] %34
V:2
 z4 z2 [E,B,E]2 | [E,G,E]2 [E,A,E]2 [E,G,E]2 [E,B,E]2 | B,,2 E,4 B,,2 | E,4 F,4 | [E,E]6 [E,E]2 | %5
 [E,B,]2 [E,B,]2 [A,C]2 [A,E]2 | [E,E]2 [E,G,B,]2 [F,A,B,]2 [E,G,B,]2 | [F,B,D]4 [E,B,E]4 | %8
 [B,,B,]6 [E,B,E]2 | [E,G,E]2 [E,A,E]2 [E,G,E]2 [E,B,E]2 | B,,2 E,4 B,,2 | E,4 F,4 | %12
 [E,E]6 [E,E]2 | [F,CE]2 [F,B,E]2 [F,CE]2 [F,B,E]2 | [F,=A,E]2 [F,B,E]2 [F,CE]2 [F,DF]2 | %15
 [F,B,F]4 [F,=A,E]4 |[M:3/4] [B,,B,]6 |[M:1/4] [E,B,][E,B,] |[M:4/4] [E,B,]2 [E,E]4 [E,E]2 | %19
 [E,E]6 [E,B,][E,B,] | [E,B,]2 [E,E]4 [E,B,]2 | [F,B,]6 [B,,B,][B,,B,] | %22
 [B,,B,]2 [B,,B,]4 [B,,B,]2 | [B,,B,]2 [B,,B,]4 [B,,B,]2 | [B,,B,]2 z A C,2 D,2 | E,6 E,E, | %26
 E,2 [E,E]4 [E,E]2 | [E,E]6 [E,B,][E,B,] | [E,B,]2 [E,B,]4[K:treble] [G,E]2 | %29
 [A,EA]6 [A,EA][A,EA] | [=A,C_G]2 [A,CG]2 [A,DG]2 [A,EG]2 |[M:5/4][K:bass] [E,E]2 [E,E]6 [=A,E]2 | %32
 [B,E]4 [B,,B,]6 |[M:3/4] [E,B,]6 |] %34
V:3
 x8 | x8 | x8 | x8 | x8 | x8 | x8 | x8 | x8 | x8 | x8 | x8 | x8 | x8 | x8 | x8 |[M:3/4] x6 | %17
[M:1/4] x2 |[M:4/4] x8 | x8 | x8 | x8 | x8 | x8 | z2 z c [B,GB]2 [B,FA]2 | x8 | x8 | x8 | x8 | x8 | %30
 x8 |[M:5/4] x10 | x10 |[M:3/4] x6 |] %34
V:4
 x8 | x8 | x8 | x8 | x8 | x8 | x8 | x8 | x8 | x8 | x8 | x8 | x8 | x8 | x8 | x8 |[M:3/4] x6 | %17
[M:1/4] x2 |[M:4/4] x8 | x8 | x8 | x8 | x8 | x8 | z2 B,2 z4 | x8 | x8 | x8 | x8 | x8 | x8 | %31
[M:5/4] x10 | x10 |[M:3/4] x6 |] %34
V:5
 x8 | x8 | x8 | x8 | x8 | x8 | x8 | x8 | x8 | x8 | x8 | x8 | x8 | x8 | x8 | x8 |[M:3/4] x6 | %17
[M:1/4] x2 |[M:4/4] x8 | x8 | x8 | x8 | x8 | x8 | z2 B,,2 z4 | x8 | x8 | x8 | x6[K:treble] x2 | %29
 x8 | x8 |[M:5/4][K:bass] x10 | x10 |[M:3/4] x6 |] %34

